X:425
T:Corriechoillie's Welcome To The Northern Meeting 
C:Joe Buchanan's Scottish Tome - Page 050.2
I:050 2
Z:Carl Allison
R:March
L:1/8
M:2/4
K:D
f | "D" A>B Ad | "A7" e>d BA | "D" d>e fa | "D" fe "A"ef |
"D" A>B Ad | "A7" e>d BA | "D" d>e fa | "D" f "G" d "D" d2 |
g | "D" a>f df | "A7" e>d BA | "D" d>e fa | "D" fe "A7" eg |
"D" a>f df | "A7" e>d BA | "D" d>e fa | "D" f "G" d "D" dg |
"D" a>f df | "A7" e>d BA | "D" d>e fa | "D" fe "A" ef |
"D" A>B Ad | "A7" e>d BA | "D" d>e fa | "D" f "G" d "D" d2 |

